src/icons/svgs/16/magnifying-glass.svg

<svg width="16" height="16" viewBox="0 0 16 16" fill="none" xmlns="http://www.w3.org/2000/svg">
<path d="M13.7258 12.3981L10.9203 9.59293C11.5583 8.64592 11.8731 7.46269 11.7045 6.20189C11.4172 4.05735 9.65938 2.31215 7.51249 2.04037C4.32053 1.63652 1.63646 4.32029 2.04038 7.5119C2.31226 9.65949 4.05789 11.4185 6.20289 11.7044C7.46384 11.8729 8.64743 11.5583 9.59431 10.9203L12.3998 13.7255C12.7659 14.0915 13.3596 14.0915 13.7257 13.7255C14.0914 13.3589 14.0914 12.7637 13.7258 12.3981ZM3.85389 6.87447C3.85389 5.22043 5.19967 3.87479 6.8539 3.87479C8.50812 3.87479 9.85391 5.22043 9.85391 6.87447C9.85391 8.52851 8.50812 9.87415 6.8539 9.87415C5.19967 9.87415 3.85389 8.52898 3.85389 6.87447Z" fill="black"/>
</svg>

<svg width="16" height="16" viewBox="0 0 16 16" xmlns="http://www.w3.org/2000/svg">
    <path d="M13.726 12.398 10.92 9.593a4.87 4.87 0 0 0 .784-3.391c-.287-2.145-2.045-3.89-4.192-4.162A4.879 4.879 0 0 0 2.04 7.512c.272 2.147 2.018 3.907 4.163 4.192a4.873 4.873 0 0 0 3.391-.784l2.806 2.806a.938.938 0 1 0 1.326-1.328zM3.854 6.874c0-1.654 1.346-3 3-3s3 1.346 3 3c0 1.655-1.346 3-3 3s-3-1.345-3-3z"/>
</svg>
